X:1027
T:Polska i D-dur efter Lörk Jonas
R:Polska
Z:Göran Hed, 2009-01-15
S:efter Lörk-Jonas
O:Hedesunda, Gästrikland
M: 3/4
L: 1/16
K:D
AGFA d2d2 cAce| dcdf A4 A2G2| FEFA GFGB E2G2| F2>A2 GFGB A2A2|
A^GAc e2e2 efed| cAce a4g4| fgfe d2e2 f2g2| egec d8:|
|:A2>c2 e2e2 efed| cAce a2a2 e4| a2a2 e2>f2 efed| cdcB B2cB A4|
A2>c2 e2e2 efed| cAce a4g4| fgfe d2e2 f2g2| egec d8:|
(:musicend:)

(:music:)
